X: 123
T: Casadh an tSúgáin
T: Twisting The Hayrope
R: reel
M: 4/4
L: 1/8
K: Gmaj
 GA | B2GE D3E | G2AB c3A | [M:6/4] BAG2   E4- E2D2 |
G2G2 A2GA | [M:6/4] B2GE D3E  G2GA | G6 :|
 Bd | e2ed d3g | e2-e/f/e d3B | c3A BAG2 | E4- E2DE |
G2G2 A2GA | [M:6/4] B2GE D3E  G2GA | G4 G2 :| 

